static/images/clients/svg/lysa.svg

<svg fill="none" height="24" viewBox="0 0 96 24" width="96" xmlns="http://www.w3.org/2000/svg" xmlns:xlink="http://www.w3.org/1999/xlink"><clipPath id="a"><path d="m0 0h95.5529v24h-95.5529z"/></clipPath><g clip-path="url(#a)"><path d="m10.5159 16.9378-1.65038-1.6504-1.7336-1.7485c-1.59395-1.5939-.46645-3.1003-.05199-3.5162-.61283.5658-1.25761 1.096-1.93117 1.588-.74276 1.0072-2.90419 3.2503-1.0874 6.1293l.21689.2153s2.25353 2.9666 6.23765-1.0175z" fill="#263138"/><path d="m12.7859 6.82153 1.643 1.6504 1.7321 1.74997c1.5939 1.5939.465 3.1002.052 3.5177.9151-.8587 1.2998-.9953 1.6474-1.4291 0 0 3.1924-3.41668 1.3756-6.29116l-.2971-.2971s-2.258-2.79574-6.153 1.09929z" fill="#263138"/><g fill="#000"><path d="m20.9547 7.73648-2.0114-2.01138c1.6802 2.78088-.0609 4.825-1.0012 6.003-.1188.1495-.2421.2951-.3699.4367l-.4248.4694.0237-.0237-.0237.0237-3.7703 3.7703c-.6581.6581-1.2374 1.2329-1.7484 1.7365l-3.58756 3.5861c.79544.7063 1.6599 1.3309 2.58036 1.8643 2.6531 1.5048 5.4964-1.6341 5.4964-1.6341l5.1503-5.1993.1055-.104c4.3882-4.3986-.419-8.91752-.419-8.91752z"/><path d="m12.4173.265093c-2.85514-1.072542-5.30327 1.443917-5.30327 1.443917l-5.15029 5.1993-.10547.10399c-4.40455 4.4046.40258 8.9324.40258 8.9324l2.01139 2.0114c-1.68012-2.7809.0609-4.825 1.00123-6.003.11885-.1495.24214-.2951.3699-.4367l.42486-.4694-.02377.0237.02377-.0237 3.77024-3.77028c.58533-.58529 1.10823-1.10373 1.57613-1.56276l3.7673-3.77172c-.2956-.3179-1.1038-1.05323-2.7646-1.677147z"/><path d="m31.2404 4.03024v16.06286c0 .1285.051.2516.1418.3425.0908.0908.214.1418.3424.1418h12.4784c.1284 0 .2516-.051.3424-.1418.0908-.0909.1418-.214.1418-.3425v-2.4035c0-.1903-.0755-.3728-.2101-.5074-.1346-.1345-.3171-.2101-.5074-.2101h-8.0589c-.1284 0-.2516-.0511-.3424-.1419s-.1419-.214-.1419-.3424v-12.56749c0-.12843-.051-.25161-.1418-.34243s-.214-.14184-.3424-.14184h-3.1092c-.1574.00039-.3081.06317-.4192.17456s-.1735.26231-.1735.41964z"/><path d="m43.0368 4.24265 6.309 11.44735c.1324.2408.2018.5111.2021.7859v3.5192c0 .154.0612.3018.1701.4107s.2566.1701.4107.1701h3.2206c.154 0 .3018-.0612.4107-.1701s.1701-.2567.1701-.4107v-3.5237c.0001-.2718.068-.5394.1976-.7784l6.2748-11.54097c.0398-.07368.0599-.15643.0582-.24017s-.0252-.1656-.068-.23759-.1035-.13165-.1763-.17315c-.0727-.0415-.155-.06342-.2387-.06362h-3.6083c-.0904.00013-.1789.02552-.2555.0733-.0767.04777-.1384.11603-.1783.19707l-3.4657 7.03393c-.7532 1.5004-.6997 1.4484-1.4603-.049l-3.5058-6.91957c-.0407-.07992-.1029-.14697-.1794-.19366-.0766-.04669-.1647-.07119-.2544-.07077l-3.6113.01783c-.0837.00057-.1658.02285-.2384.06464-.0725.04178-.133.10166-.1755.17379s-.0655.15404-.0669.23774c-.0014.08371.0189.16634.0589.23985z"/><path d="m75.4107 5.20222-.5779 2.32187c-.0208.08369-.0585.16227-.1107.23095-.0521.06868-.1177.12603-.1928.16855-.075.04253-.1579.06934-.2437.0788-.0857.00947-.1725.00139-.255-.02373-1.0547-.32236-3.2681-.90617-5.4667-.90617-3.0423 0-2.6085 2.26244-1.0264 2.68433 1.582.42188 4.816.81108 6.5021 1.94158 1.686 1.1305 2.3471 2.8863 1.582 5.4697-.765 2.5833-4.66 4.507-11.5097 2.8863-.8151-.181-1.6182-.4117-2.4051-.6907-.1308-.0447-.2397-.1373-.3048-.2592s-.0814-.2639-.0458-.3974l.6893-2.5596c.0194-.0719.0533-.139.0997-.1973.0464-.0582.1043-.1063.17-.1412.0657-.035.1379-.0561.2122-.062.0742-.0059.1488.0035.2193.0276 1.1587.3952 3.9143 1.2553 5.8856 1.2419 2.5565-.0163 2.8225-.8779 2.7823-1.5196-.0401-.6418-.4872-1.1989-2.3649-1.5702-1.8777-.3714-4.7982-.777-6.2941-2.3293-1.4959-1.5524-1.4855-5.34789 1.2344-6.97304 2.6086-1.55385 6.2734-1.21813 8.6755-.74276 1.0487.20797 1.8256.41446 2.3084.55707.1574.04612.2908.15141.3723.29377.0814.14237.1045.31074.0645.46978z"/><path d="m87.7791 3.52222h-2.8225c-.1531.00049-.3028.04538-.431.12922-.1281.08384-.2292.20305-.291.34317l-6.9982 15.89499c-.0324.0739-.0459.1547-.0391.2351.0067.0804.0334.1579.0777.2253.0443.0675.1047.1228.1758.1609.0711.0382.1506.058.2312.0576h3.4687c.0963-.0009.1901-.0305.2695-.085s.1407-.1315.1762-.221l.9106-2.3085c.0354-.0895.0968-.1665.1761-.221.0794-.0545.1733-.0841.2695-.085h6.8527c.0967.0011.1907.0312.2702.0863.0794.055.1405.1326.1755.2227l.8913 2.304c.035.0901.0961.1677.1755.2227.0794.0551.1735.0851.2701.0863h3.4672c.0807.0004.1602-.0194.2313-.0576.0711-.0381.1315-.0935.1758-.1609.0443-.0675.071-.1449.0777-.2253.0068-.0804-.0067-.1612-.0391-.2351l-6.9953-15.89649c-.0621-.14081-.1638-.26049-.2929-.34438-.129-.0839-.2796-.12838-.4335-.12801zm-3.4509 10.05548 1.5821-3.797c.0372-.08743.0993-.16199.1785-.2144.0792-.05242.1722-.08036.2672-.08036s.1879.02794.2671.08036c.0793.05241.1413.12697.1785.2144l1.6059 3.794c.0308.0735.043.1535.0354.2329-.0075.0794-.0345.1557-.0786.2221s-.1039.1209-.1741.1587-.1487.0576-.2284.0578h-3.1864c-.0794-.0004-.1574-.0203-.2273-.0579s-.1294-.0918-.1735-.1578c-.044-.066-.0711-.1418-.0789-.2208-.0079-.079.0038-.1586.034-.232z"/></g></g></svg>

<svg width="96" height="24" viewBox="0 0 96 24" fill="none" xmlns="http://www.w3.org/2000/svg">
<g clip-path="url(#clip0)">
<path d="M10.5159 16.9378L8.86552 15.2874L7.13192 13.5389C5.53797 11.945 6.66547 10.4386 7.07993 10.0227C6.4671 10.5885 5.82232 11.1187 5.14876 11.6107C4.406 12.6179 2.24457 14.861 4.06136 17.74L4.27825 17.9553C4.27825 17.9553 6.53178 20.9219 10.5159 16.9378Z" fill="#263138"/>
<path d="M12.7859 6.82153L14.4289 8.47193L16.161 10.2219C17.7549 11.8158 16.626 13.3221 16.213 13.7396C17.1281 12.8809 17.5128 12.7443 17.8604 12.3105C17.8604 12.3105 21.0528 8.89382 19.236 6.01934L18.9389 5.72224C18.9389 5.72224 16.6809 2.9265 12.7859 6.82153Z" fill="#263138"/>
<path d="M20.9547 7.73648L18.9433 5.7251C20.6235 8.50598 18.8824 10.5501 17.9421 11.7281C17.8233 11.8776 17.7 12.0232 17.5722 12.1648L17.1474 12.6342L17.1711 12.6105L17.1474 12.6342L13.3771 16.4045C12.719 17.0626 12.1397 17.6374 11.6287 18.141L8.04114 21.7271C8.83658 22.4334 9.70104 23.058 10.6215 23.5914C13.2746 25.0962 16.1179 21.9573 16.1179 21.9573L21.2682 16.758L21.3737 16.654C25.7619 12.2554 20.9547 7.73648 20.9547 7.73648Z" fill="black"/>
<path d="M12.4173 0.265093C9.56216 -0.807449 7.11403 1.70901 7.11403 1.70901L1.96374 6.90831L1.85827 7.0123C-2.54628 11.4169 2.26085 15.9447 2.26085 15.9447L4.27224 17.9561C2.59212 15.1752 4.33314 13.1311 5.27347 11.9531C5.39232 11.8036 5.51561 11.658 5.64337 11.5164L6.06823 11.047L6.04446 11.0707L6.06823 11.047L9.83847 7.27672C10.4238 6.69143 10.9467 6.17299 11.4146 5.71396L15.1819 1.94224C14.8863 1.62434 14.0781 0.88901 12.4173 0.265093Z" fill="black"/>
<path d="M31.2404 4.03024V20.0931C31.2404 20.2216 31.2914 20.3447 31.3822 20.4356C31.473 20.5264 31.5962 20.5774 31.7246 20.5774H44.203C44.3314 20.5774 44.4546 20.5264 44.5454 20.4356C44.6362 20.3447 44.6872 20.2216 44.6872 20.0931V17.6896C44.6872 17.4993 44.6117 17.3168 44.4771 17.1822C44.3425 17.0477 44.16 16.9721 43.9697 16.9721H35.9108C35.7824 16.9721 35.6592 16.921 35.5684 16.8302C35.4776 16.7394 35.4265 16.6162 35.4265 16.4878V3.92031C35.4265 3.79188 35.3755 3.6687 35.2847 3.57788C35.1939 3.48706 35.0707 3.43604 34.9423 3.43604H31.8331C31.6757 3.43643 31.525 3.49921 31.4139 3.6106C31.3028 3.72199 31.2404 3.87291 31.2404 4.03024Z" fill="black"/>
<path d="M43.0368 4.24265L49.3458 15.69C49.4782 15.9308 49.5476 16.2011 49.5479 16.4759V19.9951C49.5479 20.1491 49.6091 20.2969 49.718 20.4058C49.8269 20.5147 49.9746 20.5759 50.1287 20.5759H53.3493C53.5033 20.5759 53.6511 20.5147 53.76 20.4058C53.8689 20.2969 53.9301 20.1491 53.9301 19.9951V16.4714C53.9302 16.1996 53.9981 15.932 54.1277 15.693L60.4025 4.15203C60.4423 4.07835 60.4624 3.9956 60.4607 3.91186C60.459 3.82812 60.4355 3.74626 60.3927 3.67427C60.3499 3.60228 60.2892 3.54262 60.2164 3.50112C60.1437 3.45962 60.0614 3.4377 59.9777 3.4375H56.3694C56.279 3.43763 56.1905 3.46302 56.1139 3.5108C56.0372 3.55857 55.9755 3.62683 55.9356 3.70787L52.4699 10.7418C51.7167 12.2422 51.7702 12.1902 51.0096 10.6928L47.5038 3.77323C47.4631 3.69331 47.4009 3.62626 47.3244 3.57957C47.2478 3.53288 47.1597 3.50838 47.07 3.5088L43.4587 3.52663C43.375 3.5272 43.2929 3.54948 43.2203 3.59127C43.1478 3.63305 43.0873 3.69293 43.0448 3.76506C43.0023 3.83719 42.9793 3.9191 42.9779 4.0028C42.9765 4.08651 42.9968 4.16914 43.0368 4.24265Z" fill="black"/>
<path d="M75.4107 5.20222L74.8328 7.52409C74.812 7.60778 74.7743 7.68636 74.7221 7.75504C74.67 7.82372 74.6044 7.88107 74.5293 7.92359C74.4543 7.96612 74.3714 7.99293 74.2856 8.00239C74.1999 8.01186 74.1131 8.00378 74.0306 7.97866C72.9759 7.6563 70.7625 7.07249 68.5639 7.07249C65.5216 7.07249 65.9554 9.33493 67.5375 9.75682C69.1195 10.1787 72.3535 10.5679 74.0396 11.6984C75.7256 12.8289 76.3867 14.5847 75.6216 17.1681C74.8566 19.7514 70.9616 21.6751 64.1119 20.0544C63.2968 19.8734 62.4937 19.6427 61.7068 19.3637C61.576 19.319 61.4671 19.2264 61.402 19.1045C61.3369 18.9826 61.3206 18.8406 61.3562 18.7071L62.0455 16.1475C62.0649 16.0756 62.0988 16.0085 62.1452 15.9502C62.1916 15.892 62.2495 15.8439 62.3152 15.809C62.3809 15.774 62.4531 15.7529 62.5274 15.747C62.6016 15.7411 62.6762 15.7505 62.7467 15.7746C63.9054 16.1698 66.661 17.0299 68.6323 17.0165C71.1888 17.0002 71.4548 16.1386 71.4146 15.4969C71.3745 14.8551 70.9274 14.298 69.0497 13.9267C67.172 13.5553 64.2515 13.1497 62.7556 11.5974C61.2597 10.045 61.2701 6.24951 63.99 4.62436C66.5986 3.07051 70.2634 3.40623 72.6655 3.8816C73.7142 4.08957 74.4911 4.29606 74.9739 4.43867C75.1313 4.48479 75.2647 4.59008 75.3462 4.73244C75.4276 4.87481 75.4507 5.04318 75.4107 5.20222V5.20222Z" fill="black"/>
<path d="M87.7791 3.52222H84.9566C84.8035 3.52271 84.6538 3.5676 84.5256 3.65144C84.3975 3.73528 84.2964 3.85449 84.2346 3.99461L77.2364 19.8896C77.204 19.9635 77.1905 20.0443 77.1973 20.1247C77.204 20.2051 77.2307 20.2826 77.275 20.35C77.3193 20.4175 77.3797 20.4728 77.4508 20.5109C77.5219 20.5491 77.6014 20.5689 77.682 20.5685H81.1507C81.247 20.5676 81.3408 20.538 81.4202 20.4835C81.4996 20.429 81.5609 20.352 81.5964 20.2625L82.507 17.954C82.5424 17.8645 82.6038 17.7875 82.6831 17.733C82.7625 17.6785 82.8564 17.6489 82.9526 17.648H89.8053C89.902 17.6491 89.996 17.6792 90.0755 17.7343C90.1549 17.7893 90.216 17.8669 90.251 17.957L91.1423 20.261C91.1773 20.3511 91.2384 20.4287 91.3178 20.4837C91.3972 20.5388 91.4913 20.5688 91.5879 20.57H95.0551C95.1358 20.5704 95.2153 20.5506 95.2864 20.5124C95.3575 20.4743 95.4179 20.4189 95.4622 20.3515C95.5065 20.284 95.5332 20.2066 95.5399 20.1262C95.5467 20.0458 95.5332 19.965 95.5008 19.8911L88.5055 3.99461C88.4434 3.8538 88.3417 3.73412 88.2126 3.65023C88.0836 3.56633 87.933 3.52185 87.7791 3.52222V3.52222ZM84.3282 13.5777L85.9103 9.7807C85.9475 9.69327 86.0096 9.61871 86.0888 9.5663C86.168 9.51388 86.261 9.48594 86.356 9.48594C86.451 9.48594 86.5439 9.51388 86.6231 9.5663C86.7024 9.61871 86.7644 9.69327 86.8016 9.7807L88.4075 13.5747C88.4383 13.6482 88.4505 13.7282 88.4429 13.8076C88.4354 13.887 88.4084 13.9633 88.3643 14.0297C88.3202 14.0961 88.2604 14.1506 88.1902 14.1884C88.12 14.2262 88.0415 14.246 87.9618 14.2462H84.7754C84.696 14.2458 84.618 14.2259 84.5481 14.1883C84.4782 14.1507 84.4187 14.0965 84.3746 14.0305C84.3306 13.9645 84.3035 13.8887 84.2957 13.8097C84.2878 13.7307 84.2995 13.6511 84.3297 13.5777H84.3282Z" fill="black"/>
</g>
<defs>
<clipPath id="clip0">
<rect width="95.5529" height="24" fill="white"/>
</clipPath>
</defs>
</svg>
